X: 1429
T: An Tulach
R: polka
M: 2/4
K: Amajor
|:EA AB|cd/c/ BA|GB EF|GE E2|
EA AB|c2 BA|Be ed|cA A2:|
|:e>f ed|cA AB/c/|d2 dB|GB E2|
e>f ed|c<e AB/c/|dB GE|A2 A2:|

